X: 32338
T: Pinch Of Snuff, The
R: reel
M: 4/4
K: Dmixolydian
|:fage d3 B|ADFD EFGB|A^GAB =cBcd|eA (3Bcd efge:|
~f2 df fafd|~f2 df efge|~f2 df agfg|eA (3Bcd efge:|d4 z4||

